X: 2
T: Have A Drink With Me
R: jig
M: 6/8
L: 1/8
K: Gmaj
d/c/|BAG EGD|EGD EGD|BAG EGD|EAA ABc|BAG EGD|EGD EGD|BAG EGD|EGG G2:|||D|GBd ~e2 d|dgd ~B2 A|GBd ~e2 d|eaa aga|bag agf|gfe dBG|BAG EGD|EGG G2:|


Tune 1922	Setting 15354

